X: 6085
T: Captain Byng
R: reel
M: 4/4
K: Dmajor
d3A FDD2|Beed cABc|d3A FDDF|GEAF D3A|
d3A FDD2|Beed cABc|d3A FDDF|GEAF D2D2||
FDAD FD D2|GEBE GE E2|FDAD FD D2|GEAF D3E|
FDAD FD D2|GEBE GE E2|(3FGA Bc d3B|AFEF D2D2||

